X:1
T:Polska
R:Polska
S:Pl Nilsson
O:Jmtland
M:3/4
L:1/8
K:A
(3A2E2A2|B3/2c/2 (3ABA (3GAB|(3:2:4B2AE2A GA|(3BAB (3cBA (3GAB|
(3A2E2A2|B3/2c/2 (3ABA (3GAB| (3:2:4B2AE2A GA|(3BAB c4:|
(3efg a2 f3/2a|(3gbg e>e (3fgf|(3:2:4f2ec2A G>A|(3BAB (3cBA (3GAB|
(3efg a2 f3/2a|(3gbg e>e (3fgf|(3:2:4f2ec2A G>A|(3BcB A4:|
